X:29
T:Miss Reynors Hornpipe. JBs.029
T:College Hornpipe,aka. JBs.029
S:Jas.Blackshaw MS, 1837, N.Shropshire
Z:Tony Weatherall 2006
M:C
L:1/8
Q:1/2=90
A:North Shropshire
R:.Hornpipe
K:C
(3GAB|c2C2C2â€³*â€GF|EG c2cedc|d2D2D2dc|Bd g2g2ab|!
â€œ*â€câ€™bag agfe| fdef B2AG|Ac Bd ce df|e2c2c2:|!
|:GF|EGcG EGcG|A2F2F2AG|FA dA FAdA|B2G2G2AB|!
c2a2g2fe|fedcB2AG|AB/c/ Bc/d/ cd/e/|â€*â€de/f/ e2c2c2:|

